src/images/icons/icon-about-1.svg

<svg width="55" height="50" viewBox="0 0 55 50" fill="none" xmlns="http://www.w3.org/2000/svg">
<path d="M55 12.1001H0V49.9001H55V12.1001Z" fill="#B3B3B3"/>
<path fill-rule="evenodd" clip-rule="evenodd" d="M8.89995 9.3001H8.09995C7.79995 9.3001 7.19995 9.0001 7.19995 8.8001V0.700098C7.19995 0.400098 7.79995 0.100098 7.99995 0.100098H8.79995C9.09995 0.100098 9.39995 0.400098 9.39995 0.700098V8.8001C9.39995 9.0001 9.19995 9.3001 8.89995 9.3001Z" fill="white"/>
<path fill-rule="evenodd" clip-rule="evenodd" d="M48.9 5.7002V9.6002C48.9 9.9002 48.6 10.2002 48.3 10.2002H45.2C44.6 10.2002 44.4 9.9002 44.4 9.6002V5.7002H10.6V9.6002C10.6 9.9002 10.3 10.2002 10 10.2002H6.9C6.6 10.2002 6.3 9.9002 6.3 9.6002V5.7002H3.3C1.4 5.7002 0 7.4002 0 9.0002V12.1002H55V9.0002C55 7.3002 53.6 5.7002 51.9 5.7002H48.9Z" fill="white"/>
<path fill-rule="evenodd" clip-rule="evenodd" d="M47.2001 9.3001H46.4001C45.8001 9.3001 45.6001 9.0001 45.6001 8.7001V0.700098C45.6001 0.400098 45.9001 0.100098 46.4001 0.100098H47.2001C47.5001 0.100098 47.8001 0.400098 47.8001 0.700098V8.8001C47.8001 9.0001 47.5001 9.3001 47.2001 9.3001Z" fill="white"/>
</svg>

<svg xmlns="http://www.w3.org/2000/svg" width="55" height="50" fill="none" viewBox="0 0 55 50">
	<path fill="#B3B3B3" d="M55 12.1H0v37.8h55V12.1z"/>
	<path fill="#fff" fill-rule="evenodd" d="M9.9 24c0-1.9.8-3.6 1.9-4.7 1.7-1.7 3.9-1.9 5.6-1.9 1.9 0 3.6.3 5.3 1.9 1.4 1.4 1.9 3.1 1.9 5 0 1.1-.3 2.2-.8 3.1-.8 1.1-1.7 1.7-2.2 2.2 1.1.6 1.9 1.4 2.2 1.9.8 1.1 1.1 2.5 1.1 3.9 0 2.5-.8 4.4-2.2 5.6-1.7 1.7-3.9 1.9-5.8 1.9s-4.2-.3-5.6-1.9c-1.1-1.1-1.9-3.1-2.2-5h3.6c.3 1.1.8 1.9 1.4 2.5.6.6 1.4 1.4 3.1 1.4 1.1 0 2.2-.6 2.8-1.1.8-.8 1.4-1.9 1.4-3.6 0-.8-.3-1.9-1.1-2.8-1.3-1.1-2.7-1.4-3.5-1.4H16v-3.1h.6c1.7 0 2.8-.6 3.1-1.1.8-.6 1.1-1.7 1.1-2.5 0-1.4-.6-2.2-1.1-2.8-.8-.8-1.7-.8-2.5-.8s-1.9.3-2.8 1.1c-.8.8-1.1 2.2-1.1 2.2H9.9zM31 24c0-1.9.8-3.6 1.9-4.7 1.7-1.7 3.9-1.9 5.6-1.9 1.9 0 3.6.3 5.3 1.9 1.4 1.4 1.9 3.1 1.9 5 0 1.1-.3 2.2-.8 3.1-.8 1.1-1.7 1.7-2.2 2.2 1.1.6 1.9 1.4 2.2 1.9.8 1.1 1.1 2.5 1.1 3.9 0 2.5-.8 4.4-2.2 5.6-1.7 1.7-3.9 1.9-5.8 1.9s-4.2-.3-5.6-1.9c-1.1-1.1-1.9-3.1-2.2-5h3.6c.3 1.1.8 1.9 1.4 2.5.6.6 1.4 1.4 3.1 1.4 1.1 0 2.2-.6 2.8-1.1.8-.8 1.4-1.9 1.4-3.6 0-.8-.3-1.9-1.1-2.8-1.1-1.1-2.5-1.4-3.3-1.4h-.8v-3.1h.6c1.7 0 2.8-.6 3.1-1.1.8-.6 1.1-1.7 1.1-2.5 0-1.4-.6-2.2-1.1-2.8-.8-.8-1.7-.8-2.5-.8s-1.9.3-2.8 1.1c-.8.8-1.1 2.2-1.1 2.2H31zM8.9 9.3h-.8c-.3 0-.9-.3-.9-.5V.7c0-.3.6-.6.8-.6h.8c.3 0 .6.3.6.6v8.1c0 .2-.2.5-.5.5z" clip-rule="evenodd"/>
	<path fill="#fff" fill-rule="evenodd" d="M48.9 5.7v3.9c0 .3-.3.6-.6.6h-3.1c-.6 0-.8-.3-.8-.6V5.7H10.6v3.9c0 .3-.3.6-.6.6H6.9c-.3 0-.6-.3-.6-.6V5.7h-3C1.4 5.7 0 7.4 0 9v3.1h55V9c0-1.7-1.4-3.3-3.1-3.3h-3z" clip-rule="evenodd"/>
	<path fill="#fff" fill-rule="evenodd" d="M47.2 9.3h-.8c-.6 0-.8-.3-.8-.6v-8c0-.3.3-.6.8-.6h.8c.3 0 .6.3.6.6v8.1c0 .2-.3.5-.6.5z" clip-rule="evenodd"/>
</svg>
